X: 329
P: Longways for as many as will
M: C|
L: 1/8
K: G
V: 1
z2 |\
|: ef |\
gfed efge | d4 B4 | c2A2 A2fg | a2A2 A2ef |\
gfed efge | d4 B4 | G2G2 BcdB | G6 :|
V: 2 clef=bass middle=d
z2 |\
|: z2 |\
g4 c'4 | b2a2 g2b2 | a8 | A8 |\

